X:2
T:Who can count to eleven? [FPPPP MPPPP M]
T:Smoother like a reel, but with a quick bounce 11/8=(5+5+1)/8
C:Eric Conrad
M:11/8
L:1/8
Q:3/8=100
K:Ador
% Simple i-IV-v-i Dorian mode progression
% Chords and relatives: i=Am (III=C); IV=D (ii=Bm); v=Em (VII=G); [vi0=F#dim]
%%text A Dorian
% Play with the next four lines (comment out/modify) to see how things work
%%MIDI beatstring fppppmppppm   % rhythm: bum-dee-dee-dee-dee bum-dee-dee-dee-dee bum
%%MIDI gchord Ghigichigic       % chord vamp
%%MIDI program 40               % violin/fiddle for melody
%%MIDI chordprog 105            % banjo for chords
P:A
|: z (3B/c/B/ \
| "Am"AceAc "Asus2"eABA2 B/e/ | "G"d3Bd BGBdB "C"c | "D"d3df "Dm7"dcecA "Am"A |
AceAc "Asus2"eABA2 "Em"B/e/ | "G"d3Bd BBBdB "C"c | "D"d3df "D7"dcecA "Am"A |
A3ec "G9"AGBdG "G"d | "Em"e3ed "Bm"eBdB2 "D"d | fdfd2 "D7"dAcA2 "G"G |
"Em"B3BG "D"D2FAF "Am"A | "Asus2"A2BA2 "Am"Az3 :|
P:B
|: z2 | "Am"A3A2 "Asus2"AABea "D"a | "Em"e3eb gebgB "Bm"B | d3Bd "Asus2"BABA2 A |
"Am"A3Ac "Asus2"eABea "D"a | "Em"e3eb "G"gebgB "Bm"B | "D"d3fd "D7"fecA2 A |
"Am"A3Ac "G"edgBg "Bm"B | "Em"egbeg "Bm"bafdf "D"d | "Bm"fdBfd "Asus2"BAcA2 "Em"E |
"G"GBEGB "D"D2FAD "D"F | "Asus2"A3AB "Am"AA3 :|
%%center \u00a9 2019 by Eric Conrad
%%text Licensed for general use under Creative Commons Attribution-ShareAlike 4.0 International Public License.
%%text License details are available on the web at "https://creativecommons.org/licenses/by-sa/4.0/legalcode".

